X:1
T:Vestal, LM
T:Vestal, LM
T:Joseph Funk’s Harmonia Sacra, 5th edition, 1851
T:Public Domain Courtesy of the Cyber Hymnal™
C:Joseph Funk’s Harmonia Sacra, 5th edition, 1851
Z:Public Domain
Z:Courtesy of the Cyber Hymnal™
%%score ( 1 2 ) ( 3 4 )
L:1/8
Q:1/4=130
M:3/2
K:C
V:1 treble 
V:2 treble 
V:3 bass 
V:4 bass 
V:1
 [EA]4 | [EA]2 [Ac]2 [^GB]4 A4 | [FA]2 [E^G]2 [EA]4 [=GB]4 | [Gc]2 [Ad]2 [ce]4 [Bd]4 | %4
 [Ac]2 [Ad]2 [Ge]4 [Ge]4 | [Gd]2 [Ac]2 [GB]4 [Ec]4 | [EA]2 [EG]4 [E^G]4 x2 | %7
 [EA]2 [Ac]2 [GB]4 [EA]4 | [FA]2 [E^G]2 [EA]4 |] %9
V:2
 x4 | x8 A4 | x12 | x12 | x12 | x12 | x12 | x12 | x8 |] %9
V:3
 [A,C]4 | [A,C]2 [A,E]2 [E,E]4 [F,C]4 | [D,D]2 [E,B,]2 [A,,A,C]4 [G,D]4 | %3
 [E,E]2 [D,F]2 [C,G]4 [G,F]4 | [A,E]2 [F,A,]2 [E,B,]4 [E,B,]4 | [G,B,]2 [A,C]2 [B,D]4 [A,C]4 | %6
 [G,D]2 [A,E]2 [E,E]4 [B,E]4 | [CE]2 [A,E]2 D4 [C,C]4 | [D,C]2 [E,B,]2 [A,,A,]4 |] %9
V:4
 x4 | x12 | x12 | x12 | x12 | x12 | x12 | x4 (E,2 D,2) x4 | x8 |] %9

